X: 944
T: Sullivan's Hollow
B: jims roots
M:C|
L:1/8
Q: 1/4=100
K:D
V:1 
%D:OKeh 45508 (78 RPM), Freeny's Barn Dance Band (1930)
"D"Jf3a fede | fa2f ed2(=f | ^f3)a fedA | "A7"ed2A "D"BdA2 |
"D"Jf3a fede | fa2f ed2(=f | ^f3)a fedA | "A7"ed2A "D"BdAB ||
"D"dfed BdAB | dfed (3BdB A2 | ([A4F4][AF])BAB | dfed BdAB |
"D"dfed (3BdB A2 | ([D4F] [D2F])f(g | "A7"a3)(f e3)a | "D"(fe) [d4f] ||
% abcbook-tune_id 6298c29747505b5b712d3379


% abcbook-boost 0
% abcbook-tablature 
% abcbook-transpose 
% abcbook-lastupdated 1654178455678
% abcbook-soundfonts 
% abcbook-repeats 1


